src/pos-icons/format-strikethrough.svg

<svg height="24" viewBox="0 0 24 24" width="24" xmlns="http://www.w3.org/2000/svg"><path d="m3 14h18v-2h-18m2-8v3h5v3h4v-3h5v-3m-9 15h4v-3h-4z"/></svg>

<?xml version="1.0" encoding="UTF-8"?><!DOCTYPE svg PUBLIC "-//W3C//DTD SVG 1.1//EN" "http://www.w3.org/Graphics/SVG/1.1/DTD/svg11.dtd"><svg xmlns="http://www.w3.org/2000/svg" xmlns:xlink="http://www.w3.org/1999/xlink" version="1.1" id="mdi-format-strikethrough" width="24" height="24" viewBox="0 0 24 24"><path d="M3,14H21V12H3M5,4V7H10V10H14V7H19V4M10,19H14V16H10V19Z" /></svg>
